X:1
T:Lowell (Russian), LM
T:Lowell (Russian), LM
T:Arr. from Russian tune by Lowell Mason, 1844
T:Public Domain Courtesy of the Cyber Hymnal™
C:Arr. from Russian tune by Lowell Mason, 1844
Z:Public Domain
Z:Courtesy of the Cyber Hymnal™
%%score 1 2 3 4
L:1/8
M:3/4
K:D
V:1 treble 
V:2 treble 
V:3 treble-8 
V:4 bass 
V:1
 A2 | A4 A2 | A4 A2 | (B2 A2) A2 | A4 d2 | d4 d2 | d4 A2 | A4 A2 | A4 A2 | e4 c2 | A4 c2 | %11
 (d2 c2) d2 | A4 A2 | A4 A2 | (G2 A2) B2 | A4 G2 | F4 |] %17
V:2
 D2 | D4 E2 | F4 A2 | (G2 F2) E2 | F4 F2 | (G2 B2) G2 | F4 D2 | E4 D2 | C4 A2 | A4 A2 | A4 A2 | %11
 (A2 G2) F2 | (F2 E2) E2 | D4 D2 | D4 E2 | (D3 E) C2 | D4 |] %17
V:3
 F2 | F4 G2 | A4 d2 | (e2 d2) c2 | d4 A2 | (B2 d2) B2 | A4 F2 | (A2 G2) F2 | E4 A2 | c4 A2 | %10
 d4 A2 | (f2 e2) d2 | (d2 c2) c2 | (d2 A2) F2 | (B2 A2) G2 | (F3 G) E2 | D4 |] %17
V:4
 D,2 | D,4 D,2 | D,4 F,2 | (G,2 A,2) A,,2 | D,4 D,2 | D,4 D,2 | D,4 D,2 | C,4 D,2 | A,,4 A,,2 | %9
 A,4 G,2 | F,4 A,2 | (D,2 E,2) (F,G,) | A,4 (A,G,) | F,4 D,2 | (G,2 F,2) G,2 | A,4 A,,2 | D,4 |] %17

